X:310
T:Love At The Endings
M:C|
L:1/8
Q:200
C:Ed Reavy
S:THSP
R:reel
N:
Z:
K:D
FE|"D"DEFA "G"BcdB|"D"AF ~F2 BFAF|DEFA "G"(3Bcd AF | "Em"GE (3FED "A"B,E
EF|
"D"DEFA "G"BcdB|"D"AF ~F2 ABde|fgfe defe
|1 "A"dBAF "D"D2:|2 "A"dBAF "D"D2de||:
"D"fgfe defg|afbf afeg|~f3e dfbf|"G"afdf "A"e2de|
"D"~f3e ~d3B|AF ~F2 "G"EGFE|"D"DEFA ~d3c|1 "A"dBAF "D"D2de:|2 "A"dBAF "D
"D2|]
